package/converter/svg/solid/square-right.svg

<svg xmlns="http://www.w3.org/2000/svg" viewBox="0 0 448 512"><!-- Font Awesome Pro 6.0.0-alpha2 by @fontawesome - https://fontawesome.com License - https://fontawesome.com/license (Commercial License) --><path d="M448 416V96C448 60.654 419.346 32 384 32H64C28.654 32 0 60.654 0 96V416C0 451.346 28.654 480 64 480H384C419.346 480 448 451.346 448 416ZM233.875 382.781C227.891 380.312 224 374.469 224 368V304H128C110.327 304 96 289.673 96 272V240C96 222.327 110.327 208 128 208H224V144C224 137.531 227.891 131.688 233.875 129.219C239.859 126.734 246.734 128.109 251.313 132.687L363.313 244.687C369.56 250.935 369.56 261.065 363.313 267.312L251.313 379.312C246.734 383.891 239.859 385.266 233.875 382.781Z"/></svg>

<svg xmlns="http://www.w3.org/2000/svg" viewBox="0 0 448 512"><!--! Font Awesome Pro 6.6.0 by @fontawesome - https://fontawesome.com License - https://fontawesome.com/license (Commercial License) Copyright 2024 Fonticons, Inc. --><path d="M448 96c0-35.3-28.7-64-64-64L64 32C28.7 32 0 60.7 0 96L0 416c0 35.3 28.7 64 64 64l320 0c35.3 0 64-28.7 64-64l0-320zM363.3 267.3l-112 112c-4.6 4.6-11.5 5.9-17.4 3.5s-9.9-8.3-9.9-14.8l0-64-96 0c-17.7 0-32-14.3-32-32l0-32c0-17.7 14.3-32 32-32l96 0 0-64c0-6.5 3.9-12.3 9.9-14.8s12.9-1.1 17.4 3.5l112 112c6.2 6.2 6.2 16.4 0 22.6z"/></svg>
